X:252
T: Die Jdin und der Schreiber (22a)
N: T0141
O: Luxemburg
S: Singendes Volk, Esch-Alzette 1937 posth.]
N: Straen, fff Witry, 3.1.1933
R: Liebeslieder]
M: 6/8
L: 1/16
K: A
 | A2A2AAA4=G2 | F4E2D4
d2 | d4A2B4GG | A8z2
A2 | d4d2c4d2 | A4B2A4
F2 | B4B2B4A2 | F4A2A4
A2 | A4E2=G4F2 | E6
d6 | c4A2B4cB | A8z4

@@@ Tune index: 8306
